X:1
T:Title
%%score { ( 1 4 ) | ( 2 3 ) }
L:1/8
Q:1/4=106
M:4/4
K:G
V:1 treble nm="Grand Piano"
V:4 treble 
V:2 bass 
V:3 bass 
V:1
 G2 GG [FA]2 [FA]2 | B4 d2 [DGB]2 | [DAc]4 [DGB]4 | [DFA]6 [DFA]2 | [DGB]3 [DGB] [DFA]2 [DGB]2 | %5
w: Robert~Lowry * * * *|||||
 [Ac]4 [GB]2 [CFA]2 | [B,G]4 [^CGA]4 | [DFA]6 z2 | [DGB]4 [DAc]2 [DGB]2 | [DGB]3 [DFA] [DFA]4 | %10
w: |||||
 [DGB]4 [DFd]2 [DAc]2 | [DAc]3 B B4 | e4 d2 z =F | [Ed]3 [Ec] [Ec]2 [CEA]2 | z4 [DF]4 | [B,DG]8 |] %16
w: ||||||
V:2
 [G,B,D]2 [G,B,D][G,B,D] [D,D]2 [D,D]2 | D4 z4[K:bass] | F,4 G,4 | D,6 D,2 | G,3 G, D,2 G,2 | %5
 F,4 G,2 D,2 | E,4 A,,4 | D,6 z2 | G,4 F,2 G,2 | D,3 D, D,4 | G,4 D,2 F,2 | %11
 G,3[K:treble] [G,DG] [G,DG]4 | [G,CG]4 [G,B,G]2 .[G,D]2 | [C,G,]3 [C,G,] [C,G,]2 C,2 | D,4 z2 C2 | %15
 G,,8 |] %16
V:3
 x8 | [G,G]4- [G,B,G]2[K:bass] G,2 | x8 | x8 | x8 | x8 | x8 | x8 | x8 | x8 | x8 | x3[K:treble] x5 | %12
 x8 | x8 | z4 D,4 | x8 |] %16
V:4
 x8 | x8 | x8 | x8 | x8 | D6 z2 | x8 | x8 | x8 | x8 | x8 | x8 | z4 z2 B2 | x8 | [B,DG]4 A,2 z2 | %15
 x8 |] %16

